X: 108104
T: The RETURN FROM INDIA
Q: "Reel."
R:  Reel.
%R: reel
B: James Kerr "Merry Melodies" v.1 p.8 s.1 #4
Z: 2017 John Chambers <jc:trillian.mit.edu>
M: C
L: 1/8
K: A
ue |:\
dcBA cAce | dcBA GBEe |\
dcBA cAeA |[1 fAgA afec :|[2 fAgA aAA ||\
e |\
agae agae | dcBA GBBe |
agae agae | fefg aAAe |\
aAgA fAeA | dcBA GBed |\
cABc defg | agfg aAA |]\
"_Fine."A4 ||

% %newpage
%%sep 1 1 500
%%sep 1 1 500
%%center Set. 11th.

%%sep 1 1 500
%%sep 1 1 500

